X: 188
T: Cent mille regretz
N: Derived from Rue3004-Cent_mille_regretz.krn
C: Pierre de la Rue
%%abc-version 2.0
%%abcx-abcm2ps-target-version 5.9.1 (29 Sep 2008)
%%abc-creator hum2abc beta
%%abcx-conversion-date 2019/02/17 08:01:17
%%abc-edited-by Jesse Rodin
%%abc-edited-by Will Watson 22/08/2011
%%abcx-initial-encoding-date 2011/08/22/
%%humdrum-veritas 1781276920
%%humdrum-veritas-data 3259515210
%%linebreak <none>
%%barnumbers 0
L: 1/4
M: 2/1
Q: 1/2=120
V: 1 clef=treble
V: 2 clef=treble-8
V: 3 clef=treble-8
V: 4 clef=bass
V: 5 clef=bass
K: C
[V:1] A4A2B2- | 
[V:2] d6d2 | 
[V:3] z8 | 
[V:4] z8 | 
[V:5] z8 | 
[V:1] BAA4^G2 | 
[V:2] A4B4 | 
[V:3] z8 | 
[V:4] z8 | 
[V:5] z8 | 
[V:1] A8 | 
[V:2] A4d4 | 
[V:3] F6F2 | 
[V:4] z8 | 
[V:5] D,6D,2 | 
[V:1] z4d4 | 
[V:2] c2A3^G^G2 | 
[V:3] E4D4 | 
[V:4] z8 | 
[V:5] A,,4B,,4 | 
[V:1] c2A3BcA | 
[V:2] A8 | 
[V:3] E8- | 
[V:4] z8 | 
[V:5] A,,8 | 
[V:1] B2G3FE2- | 
[V:2] z8 | 
[V:3] E8 | 
[V:4] G,6G,2 | 
[V:5] z8 | 
[V:1] E2D4^C2 | 
[V:2] z8 | 
[V:3] z8 | 
[V:4] D,4E,4 | 
[V:5] z8 | 
[V:1] D8 | 
[V:2] z8 | 
[V:3] z2A2A2A2- | 
[V:4] D,8 | 
[V:5] z4z2D,2 | 
[V:1] z8 | 
[V:2] z2d2d2d2- | 
[V:3] AGFED2A2 | 
[V:4] z8 | 
[V:5] D,2D,3C,B,,A,, | 
[V:1] z8 | 
[V:2] d2B2c4 | 
[V:3] B2G4^F2 | 
[V:4] z8 | 
[V:5] G,,2B,,2A,,4 | 
[V:1] z2G2G2G2- | 
[V:2] B2d4d2- | 
[V:3] G8 | 
[V:4] z4z2G,2 | 
[V:5] G,,8 | 
[V:1] GFD2E2G2- | 
[V:2] dcBAG2d2 | 
[V:3] z8 | 
[V:4] G,2G,3F,E,D, | 
[V:5] z8 | 
[V:1] G2E2F4 | 
[V:2] e2c4B2 | 
[V:3] z2G4F2 | 
[V:4] C,2E,2D,4 | 
[V:5] z8 | 
[V:1] E6G2- | 
[V:2] c4z2c2 | 
[V:3] G2E2CDEF | 
[V:4] C,8 | 
[V:5] z2G,2G,2G,2- | 
[V:1] GABcd3c | 
[V:2] B2d3cB2- | 
[V:3] G2D4d2- | 
[V:4] z8 | 
[V:5] G,2F,E,D,2G,2 | 
[V:1] B2G2A4 | 
[V:2] B2e4d2 | 
[V:3] d2G2c2A2 | 
[V:4] z8 | 
[V:5] G,2E,2F,4 | 
[V:1] G4z2c2- | 
[V:2] e8- | 
[V:3] B2G2G4 | 
[V:4] z2C2C2C2- | 
[V:5] E,8- | 
[V:1] cBGAB2E2- | 
[V:2] e8 | 
[V:3] z8 | 
[V:4] C2B,A,G,2C2 | 
[V:5] E,8- | 
[V:1] E2A4^G2 | 
[V:2] z4z2e2 | 
[V:3] z2E2E2E2 | 
[V:4] C2A,2B,4 | 
[V:5] E,8 | 
[V:1] A8- | 
[V:2] e2e2c3d | 
[V:3] C3DE2F2 | 
[V:4] A,8- | 
[V:5] z2A,,2A,,3B,, | 
[V:1] A8 | 
[V:2] e2f4e2- | 
[V:3] E2A3GE2 | 
[V:4] A,8- | 
[V:5] C,2D,2D,2C,2 | 
[V:1] z4z2A2 | 
[V:2] e2d4^c2 | 
[V:3] F2D2E4 | 
[V:4] A,8 | 
[V:5] D,4A,,4 | 
[V:1] A2A2F3G | 
[V:2] d4z2d2 | 
[V:3] D4z4 | 
[V:4] z2D,2D,3E, | 
[V:5] z8 | 
[V:1] A2_B4A2- | 
[V:2] d2d2_B2d2- | 
[V:3] z8 | 
[V:4] F,2G,2G,2F,2 | 
[V:5] z8 | 
[V:1] A2G4^F2 | 
[V:2] dc_B2A4 | 
[V:3] z4D4 | 
[V:4] G,4D,4 | 
[V:5] z8 | 
[V:1] G8 | 
[V:2] G4z2G2 | 
[V:3] D2D2G4 | 
[V:4] z8 | 
[V:5] G,,4G,,2G,,2 | 
[V:1] z8 | 
[V:2] G2G2c4 | 
[V:3] G2G2E2E2 | 
[V:4] z8 | 
[V:5] C,4C,2C,2 | 
[V:1] z8 | 
[V:2] c2c2GBcd | 
[V:3] A3GE4 | 
[V:4] z8 | 
[V:5] A,,2C,3D,E,F, | 
[V:1] G4G2G2 | 
[V:2] edcBc4 | 
[V:3] E3FG4 | 
[V:4] C,4C,2C,2 | 
[V:5] G,F,E,D,E,4 | 
[V:1] F4D2F2- | 
[V:2] d8 | 
[V:3] A8 | 
[V:4] F,4F,2F,2 | 
[V:5] D,8 | 
[V:1] FGABcBAG | 
[V:2] z8 | 
[V:3] z8 | 
[V:4] D,2F,3G,A,B, | 
[V:5] z8 | 
[V:1] A2G4^F2 | 
[V:2] z8 | 
[V:3] z4D4 | 
[V:4] CB,A,G,A,4 | 
[V:5] z8 | 
[V:1] G8 | 
[V:2] z4G4 | 
[V:3] D2D2G4 | 
[V:4] G,8 | 
[V:5] G,,4G,,2G,,2 | 
[V:1] z8 | 
[V:2] G2G2c4 | 
[V:3] G2G2E2E2 | 
[V:4] z8 | 
[V:5] C,4C,2C,2 | 
[V:1] z8 | 
[V:2] c2c2ABcd | 
[V:3] A3GE4 | 
[V:4] z8 | 
[V:5] A,,2C,3D,E,F, | 
[V:1] G4G2G2 | 
[V:2] edcBc4 | 
[V:3] E3FG4 | 
[V:4] C,4C,2C,2 | 
[V:5] G,F,E,D,E,4 | 
[V:1] F4D2F2- | 
[V:2] d4z2d2 | 
[V:3] A8 | 
[V:4] F,4F,2F,2 | 
[V:5] D,8 | 
[V:1] FGABcBAG | 
[V:2] d2c2ABcd | 
[V:3] z8 | 
[V:4] D,2F,3G,A,B, | 
[V:5] z8 | 
[V:1] A2G2c4 | 
[V:2] efg4^f2 | 
[V:3] z8 | 
[V:4] CB,A,G,A,4 | 
[V:5] z8 | 
[V:1] B4z2G2 | 
[V:2] g8 | 
[V:3] z2G2G2G2 | 
[V:4] G,8 | 
[V:5] z8 | 
[V:1] G2G2c2c2 | 
[V:2] z2c2c2c2 | 
[V:3] c2c2A2A2 | 
[V:4] z8 | 
[V:5] z8 | 
[V:1] A2A2d3c | 
[V:2] f2f2d4- | 
[V:3] d3cB2A2 | 
[V:4] z8 | 
[V:5] D,4D,2D,2 | 
[V:1] B3AG4 | 
[V:2] d2d2g3f | 
[V:3] G3AB2c2- | 
[V:4] z8 | 
[V:5] G,2G,2E,2E,2 | 
[V:1] A2c3BA2- | 
[V:2] e2e2d4 | 
[V:3] c2A4d2- | 
[V:4] z8 | 
[V:5] A,3G,F,4 | 
[V:1] A2GFG4 | 
[V:2] e8 | 
[V:3] dcBAB4 | 
[V:4] G,4G,2G,2 | 
[V:5] E,8 | 
[V:1] A4z2A2 | 
[V:2] z2e2f2f2 | 
[V:3] A8 | 
[V:4] C2C2A,2A,2 | 
[V:5] z2A,,2D,2D,2 | 
[V:1] B3cd4 | 
[V:2] d6ed | 
[V:3] z4G4 | 
[V:4] D3CB,4 | 
[V:5] B,,3A,,G,,4 | 
[V:1] c2A3GE2 | 
[V:2] e8 | 
[V:3] c2c2A4 | 
[V:4] A,8 | 
[V:5] z2A,,2A,,2C,2 | 
[V:1] FEDCD4 | 
[V:2] z8 | 
[V:3] A2d2d2G2 | 
[V:4] z2D,2G,2G,2 | 
[V:5] D,C,B,,A,,B,,4 | 
[V:1] C4z2E2 | 
[V:2] e4e2c2 | 
[V:3] A2GFE4 | 
[V:4] E,3D,C,4 | 
[V:5] A,,8 | 
[V:1] F2A3GF2 | 
[V:2] d2f3edc | 
[V:3] D8 | 
[V:4] z2D,2D,2F,2 | 
[V:5] z8 | 
[V:1] EDD4^C2 | 
[V:2] B2A4G2 | 
[V:3] z4C4 | 
[V:4] G,F,E,D,E,4 | 
[V:5] z8 | 
[V:1] D4z2A2 | 
[V:2] A4d4 | 
[V:3] F2F2D4 | 
[V:4] D,8 | 
[V:5] D,4D,2D,2 | 
[V:1] B3cd2B2 | 
[V:2] d2d2B3A | 
[V:3] D2G3FD2 | 
[V:4] z8 | 
[V:5] B,,3A,,G,,4 | 
[V:1] c2G3FED | 
[V:2] G2G2G2c2- | 
[V:3] E4D2G2- | 
[V:4] z8 | 
[V:5] C,4B,,2E,2- | 
[V:1] C4D4 | 
[V:2] c2BAG4 | 
[V:3] GFE2D4 | 
[V:4] G,4G,2G,2 | 
[V:5] E,2D,C,B,,4 | 
[V:1] C2c3BAG | 
[V:2] A2e4e2- | 
[V:3] z2E4E2 | 
[V:4] E,3D,C,4 | 
[V:5] A,,8- | 
[V:1] F2EDC2E2- | 
[V:2] edcBA4- | 
[V:3] F2A4GF | 
[V:4] F,4E,2A,2- | 
[V:5] A,,8- | 
[V:1] EDD4^C2 | 
[V:2] A4A4- | 
[V:3] E2A3GE2 | 
[V:4] A,2G,F,E,4 | 
[V:5] A,,8 | 
[V:1] D8- | 
[V:2] A8- | 
[V:3] F4D4 | 
[V:4] D,8- | 
[V:5] D,8- | 
[V:1] D8 |]  
[V:2] A8 |]  
[V:3] F8 |]  
[V:4] D,8 |]  
[V:5] D,8 |]  



